icons/fill-ele-media-picture-image-photo.svg

<svg xmlns="http://www.w3.org/2000/svg" width="32px" height="32px" viewBox="0 0 32 32" version="1.1">
    <title>fill-ele-media-picture-image-photo</title>
    <g id="fill-ele-media-picture-image-photo" stroke-width="1" fill-rule="evenodd">
        <path d="M29,4 C29.5522847,4 30,4.44771525 30,5 L30,27 C30,27.5522847 29.5522847,28 29,28 L3,28 C2.44771525,28 2,27.5522847 2,27 L2,5 C2,4.44771525 2.44771525,4 3,4 L29,4 Z M18.6464466,16.3535534 L14.3535534,20.6464466 C14.1582912,20.8417088 13.8417088,20.8417088 13.6464466,20.6464466 L11.3535534,18.3535534 C11.1582912,18.1582912 10.8417088,18.1582912 10.6464466,18.3535534 L4.85355339,24.1464466 C4.65829124,24.3417088 4.65829124,24.6582912 4.85355339,24.8535534 C4.94732158,24.9473216 5.07449854,25 5.20710678,25 L26.7928932,25 C27.0690356,25 27.2928932,24.7761424 27.2928932,24.5 C27.2928932,24.3673918 27.2402148,24.2402148 27.1464466,24.1464466 L19.3535534,16.3535534 C19.1582912,16.1582912 18.8417088,16.1582912 18.6464466,16.3535534 Z M11,9 C9.34314575,9 8,10.3431458 8,12 C8,13.6568542 9.34314575,15 11,15 C12.6568542,15 14,13.6568542 14,12 C14,10.3431458 12.6568542,9 11,9 Z" id="&#24418;&#29366;" />
    </g>
</svg>

<svg xmlns="http://www.w3.org/2000/svg" viewBox="0 0 32 32"><path fill="currentColor" d="M29 4a1 1 0 0 1 1 1v22a1 1 0 0 1-1 1H3a1 1 0 0 1-1-1V5a1 1 0 0 1 1-1zM18.646 16.354l-4.292 4.292a.5.5 0 0 1-.708 0l-2.292-2.292a.5.5 0 0 0-.708 0l-5.792 5.792a.5.5 0 0 0 .353.854h21.586a.5.5 0 0 0 .353-.854l-7.792-7.792a.5.5 0 0 0-.708 0M11 9a3 3 0 1 0 0 6 3 3 0 0 0 0-6"/></svg>
